packages/sources/icons/src/vitamix/money-cny-box-line.svg

<svg width="16" height="16" viewBox="0 0 16 16" fill="none" xmlns="http://www.w3.org/2000/svg">
<path fill-rule="evenodd" clip-rule="evenodd" d="M1.99999 2H14C14.3682 2 14.6667 2.29848 14.6667 2.66667V13.3333C14.6667 13.7015 14.3682 14 14 14H1.99999C1.63181 14 1.33333 13.7015 1.33333 13.3333V2.66667C1.33333 2.29848 1.63181 2 1.99999 2ZM2.66666 3.33333V12.6667H13.3333V3.33333H2.66666ZM10.6667 8.66666H8.66666V8H10.6667V6.66667H8.94266L10.3573 5.25267L9.41399 4.30933L8 5.724L6.58666 4.30933L5.64266 5.25267L7.05733 6.66667H5.33333V8H7.33333V8.66666H5.33333V10H7.33333V11.3333H8.66666V10H10.6667V8.66666Z" fill="#001018"/>
</svg>

<svg width="16" height="16" fill="none" xmlns="http://www.w3.org/2000/svg"><path fill-rule="evenodd" clip-rule="evenodd" d="M2 2h12c.368 0 .667.298.667.667v10.666A.667.667 0 0 1 14 14H2a.667.667 0 0 1-.667-.667V2.667C1.333 2.298 1.632 2 2 2zm.667 1.333v9.334h10.666V3.333H2.667zm8 5.334h-2V8h2V6.667H8.943l1.414-1.414-.943-.944L8 5.724 6.587 4.309l-.944.944 1.414 1.414H5.333V8h2v.667h-2V10h2v1.333h1.334V10h2V8.667z" fill="#001018"/></svg>
